!!!SOCIAL_FUNCTION:	songs of personal narratives concerning war
!!!PDT:	1918

Specific Region: Dakotas, Minnesota, Montana, Nebraska
!!!REG: Dakotas and Montana
!!!LING_GROUP: Siouan
!!!LANG: Tone
!!!OTL@ENG: Captives I Am Bringing
!!!ONM: No. 166
**kern
*Imale
*clefF4
*k[f#c#g#d#]
*M3/4
*MM96
16e
=1
16e
[8.c#
4c#]
16e
8.c#
=2
8.c#
16B#
[4c#
8.c#]
16e
=3
16e
[8.c#
4c#]
16e
8.c#
=4
8.B#
16G#
2B#
=5
2B#
16c#
8.B#
=6
8.B
16G#
8B
[8B
8B]
8G#
=7
16F#
8.F#
4.F#
8G#
=8
16G#
[8.F#
4F#]
16G#
8.F#
=9
8F#
8D#
2F#
=10||
*M2/4
16C#
[8.C#
8C#]
8C#
=11||
*M3/4
2.C#
=12||
*M2/4
*MM112
16c#
[8.c#
4c#]
=13
4c#
(16c#
8.B#)
=14
16c#
[8.c#
8c#]
8B#
=15
4c#
4c#
=16
16c#
[8.c#
4c#]
=17
4c#
4c#
=18
8c#
[8B
8.B]
16G#
=19||
*M3/4
4B
2B
=20
*MM96
2B
16c#
8.B
=21
8.B
16G#
8B
[8B
8B]
8G#
=22
8F#
8F#
2F#
=23
16G#
[8.F#
4F#]
16G#
8.F#
=24
8.F#
16D#
2F#
=25||
*M2/4
8C#
[8C#
8C#]
8C#
=26
4C#
4C#
==
*-
!!!CNT: Native American -- Sioux
!!!MRD: 1911/07//-1914///
!!!OCL: Frances Densmore
!!!YOR1: Teton Sioux Music, Bulletin 61,
!!!YOR2: Bureau of American Ethnology, Smithsonian Institution
!!!PPR: Government Printing Office
!!!PPP: Washington, D.C.
!!!PDT: 1918///
!!!ENC: Craig Stuart Sapp
!!!END: 2002/03/25/
!!!EEV: 2002/03/31/
!!!AGN: War Song/Song of Personal Narrative Concerning War
!!!MPN@@SIO: Wangbli'-waha'chungka
!!!MPN@ENG: Eagle Shield
!!!TXO: Teton Sioux
!!!MLC: Standing Rock Reservation, South Dakota, United States of America
!!!ARL: 45.9/-100.7#
!!!catalog: Catalogue No. 510
!!!PPG: 396
!!!EFL: 171/245
!!!VTS: 4112989117
